src/containers/site/SiteRobotsScreen/asset/bittrex.svg

<svg width="188" height="41" viewBox="0 0 188 41" fill="none" xmlns="http://www.w3.org/2000/svg">
<g clip-path="url(#clip0)">
<path d="M114.731 34.9301C114.731 35.3036 114.746 35.824 114.773 36.4916C114.801 37.1548 114.819 37.5398 114.828 37.645H114.786L109.834 29.6388H107.831V39.7385H109.331V34.489C109.331 33.7796 109.299 32.9967 109.234 32.1403L109.199 31.6919H109.254L114.221 39.7399H116.245V29.6402H114.733V34.9301H114.731Z" fill="#B5B5B5"/>
<path d="M104.053 32.5815C104.053 31.5953 103.74 30.8585 103.113 30.3712C102.487 29.8825 101.521 29.6388 100.22 29.6388H97.3662V39.7385H99.0171V35.7044H100.648L103.066 39.7385H104.944L102.091 35.269C103.399 34.7355 104.053 33.8387 104.053 32.5815ZM100.165 34.3361H99.0185V31.0344H100.11C100.861 31.0344 101.422 31.1584 101.795 31.4079C102.169 31.6559 102.355 32.0668 102.355 32.6377C102.355 33.2 102.182 33.6239 101.837 33.9094C101.491 34.1934 100.933 34.3361 100.165 34.3361Z" fill="#B5B5B5"/>
<path d="M73.0273 34.9301C73.0273 35.3036 73.0417 35.824 73.0691 36.4916C73.0965 37.1548 73.1153 37.5398 73.1239 37.645H73.0821L68.1296 29.6388H66.127V39.7385H67.6264V34.489C67.6264 33.7796 67.5947 32.9967 67.5298 32.1403L67.4952 31.6919H67.55L72.5169 39.7399H74.5398V29.6402H73.0273V34.9301Z" fill="#B5B5B5"/>
<path d="M77.4883 31.0546H80.4584V39.7385H82.1106V31.0546H85.0807V29.6388H77.4883V31.0546Z" fill="#B5B5B5"/>
<path d="M88.0498 39.7385H93.7621V38.3356H89.7006V35.1652H93.507V33.7839H89.7006V31.0344H93.7621V29.6388H88.0498V39.7385Z" fill="#B5B5B5"/>
<path d="M62.0385 29.6388H60.3877V39.7385H62.0385V29.6388Z" fill="#B5B5B5"/>
<path d="M129.961 31.0546H132.931V39.7385H134.582V31.0546H137.552V29.6388H129.961V31.0546Z" fill="#B5B5B5"/>
<path d="M165.712 34.9301C165.712 35.3036 165.726 35.824 165.754 36.4916C165.781 37.1548 165.8 37.5398 165.809 37.645H165.767L160.814 29.6388H158.812V39.7385H160.311V34.489C160.311 33.7796 160.279 32.9967 160.214 32.1403L160.18 31.6919H160.235L165.202 39.7399H167.226V29.6402H165.713V34.9301H165.712Z" fill="#B5B5B5"/>
<path d="M183.723 38.3227V29.6388H182.072V39.7385H187.999V38.3227H183.723Z" fill="#B5B5B5"/>
<path d="M150.515 29.4802C148.991 29.4802 147.816 29.9272 146.992 30.8211C146.173 31.715 145.762 32.9953 145.762 34.662C145.762 36.3287 146.17 37.6162 146.984 38.5231C147.803 39.4256 148.975 39.8769 150.501 39.8769C152.006 39.8769 153.17 39.4213 153.989 38.5087C154.813 37.5975 155.226 36.3186 155.226 34.675C155.226 33.027 154.816 31.7482 153.996 30.8413C153.177 29.9344 152.016 29.4802 150.515 29.4802ZM152.72 37.5138C152.222 38.1497 151.483 38.4669 150.502 38.4669C149.516 38.4669 148.774 38.1468 148.27 37.5066C147.769 36.8622 147.518 35.9178 147.518 34.675C147.518 33.4365 147.769 32.4964 148.27 31.8563C148.776 31.2161 149.525 30.8961 150.515 30.8961C151.496 30.8961 152.232 31.2161 152.726 31.8563C153.223 32.4964 153.471 33.4365 153.471 34.675C153.472 35.9322 153.222 36.878 152.72 37.5138Z" fill="#B5B5B5"/>
<path d="M173.751 29.5969L169.972 39.737H171.712L172.7 36.9327H176.561L177.57 39.737H179.325L175.546 29.5969H173.751ZM173.184 35.5111L174.095 32.8799C174.335 32.208 174.516 31.588 174.642 31.0214C174.688 31.206 174.77 31.4958 174.89 31.8922C175.014 32.2887 175.11 32.5785 175.179 32.7631L176.125 35.5126H173.184V35.5111Z" fill="#B5B5B5"/>
<path d="M142.171 29.6388H140.521V39.7385H142.171V29.6388Z" fill="#B5B5B5"/>
<path d="M122.771 29.5969L118.992 39.737H120.732L121.72 36.9327H125.581L126.59 39.737H128.345L124.566 29.5969H122.771ZM122.204 35.5111L123.116 32.8799C123.355 32.208 123.537 31.588 123.662 31.0214C123.708 31.206 123.79 31.4958 123.91 31.8922C124.034 32.2887 124.131 32.5785 124.2 32.7631L125.147 35.5111H122.204Z" fill="#B5B5B5"/>
<path d="M83.4248 0H80.8008V23.3526H83.4248V0Z" fill="#B5B5B5"/>
<path d="M70.0232 11.331C72.5103 10.5712 73.8569 8.63629 73.8569 5.83923C73.8569 2.17565 71.1276 0 66.4663 0H59.0771V23.3526H67.1584C72.0619 23.3526 74.9627 20.9693 74.9627 16.9611C74.9627 14.1641 73.1317 12.0562 70.0232 11.331ZM61.6998 2.21025H66.4663C69.4364 2.21025 71.1636 3.66213 71.1636 6.0454C71.1636 8.7747 69.4364 10.502 66.7777 10.502H61.7012V2.21025H61.6998ZM67.1584 21.1423H61.7012V12.5752H67.366C70.336 12.5752 72.2695 14.3025 72.2695 16.9626C72.268 19.5881 70.3692 21.1423 67.1584 21.1423Z" fill="#B5B5B5"/>
<path d="M98.2763 23.3526V2.2117H104.805V0H89.0547V2.2117H95.6523V23.3526H98.2763Z" fill="#B5B5B5"/>
<path d="M165.003 21.1423H154.056V12.679H163.863V10.5726H154.056V2.2117H164.898V0H151.432V23.354H165.003V21.1423Z" fill="#B5B5B5"/>
<path d="M124.352 0H108.604V2.2117H115.2V23.3526H117.824V2.2117H124.352V0Z" fill="#B5B5B5"/>
<path d="M173.226 23.3541L178.579 13.7489L178.785 12.8507L178.992 13.7489L184.381 23.3541H187.593L180.444 11.4349L187.384 0.034668H184.207L178.992 9.29236L178.785 10.192L178.579 9.29236L173.363 0.034668H170.221L177.163 11.4349L170.014 23.3541H173.226Z" fill="#B5B5B5"/>
<path d="M139.689 13.9911C142.797 13.2659 144.765 10.9172 144.765 7.15125C144.765 2.66009 141.726 0 136.579 0H129.846V23.3526H132.47V14.3025H137.512L142.588 23.3526H145.697L140.378 14.6817L139.689 13.9911ZM136.89 12.2292H132.435V2.2117H137.063C140.241 2.2117 142.105 4.04276 142.105 7.15125C142.105 10.5366 139.999 12.2292 136.89 12.2292Z" fill="#B5B5B5"/>
<path d="M8.2744 0V6.34673H12.2595V3.98653H36.1686V27.9101H12.2595V15.0551H8.2744V31.8966H40.1537V0H8.2744ZM0 8.97078V40.8688H31.8778V34.264H27.8942V36.8808H3.98365V12.9588H27.8942V25.5571H31.8778V8.97078H0Z" fill="#B5B5B5"/>
</g>
<defs>
<clipPath id="clip0">
<rect width="188" height="40.8688" fill="white"/>
</clipPath>
</defs>
</svg>

<svg width="188" height="41" fill="none" xmlns="http://www.w3.org/2000/svg"><g clip-path="url(#clip0)" fill="#B5B5B5"><path d="M114.731 34.93c0 .374.015.894.042 1.562.028.663.046 1.048.055 1.153h-.042l-4.952-8.006h-2.003v10.1h1.5v-5.25c0-.71-.032-1.492-.097-2.349l-.035-.448h.055l4.967 8.048h2.024v-10.1h-1.512v5.29h-.002zM104.053 32.581c0-.986-.313-1.723-.94-2.21-.626-.488-1.592-.732-2.893-.732h-2.854v10.1h1.651v-4.035h1.631l2.418 4.035h1.878l-2.853-4.47c1.308-.533 1.962-1.43 1.962-2.688zm-3.888 1.755h-1.147v-3.302h1.092c.751 0 1.312.124 1.685.374.374.248.56.659.56 1.23 0 .562-.173.986-.518 1.271-.346.284-.904.427-1.672.427zM73.027 34.93c0 .374.015.894.042 1.562.028.663.046 1.048.055 1.153h-.042l-4.952-8.006h-2.003v10.1h1.5v-5.25c0-.71-.032-1.492-.097-2.349l-.035-.448h.055l4.967 8.048h2.023v-10.1h-1.513v5.29zM77.488 31.055h2.97v8.684h1.653v-8.684h2.97v-1.416h-7.593v1.416zM88.05 39.739h5.712v-1.403h-4.061v-3.17h3.806v-1.382h-3.806v-2.75h4.061V29.64H88.05v10.1zM62.038 29.639h-1.65v10.1h1.65v-10.1zM129.961 31.055h2.97v8.684h1.651v-8.684h2.97v-1.416h-7.591v1.416zM165.712 34.93c0 .374.014.894.042 1.562.027.663.046 1.048.055 1.153h-.042l-4.953-8.006h-2.002v10.1h1.499v-5.25c0-.71-.032-1.492-.097-2.349l-.034-.448h.055l4.967 8.048h2.024v-10.1h-1.513v5.29h-.001zM183.723 38.323v-8.684h-1.651v10.1h5.927v-1.416h-4.276zM150.515 29.48c-1.524 0-2.699.447-3.523 1.341-.819.894-1.23 2.174-1.23 3.841 0 1.667.408 2.954 1.222 3.861.819.903 1.991 1.354 3.517 1.354 1.505 0 2.669-.456 3.488-1.368.824-.912 1.237-2.19 1.237-3.834 0-1.648-.41-2.927-1.23-3.834-.819-.907-1.98-1.36-3.481-1.36zm2.205 8.034c-.498.636-1.237.953-2.218.953-.986 0-1.728-.32-2.232-.96-.501-.645-.752-1.59-.752-2.832 0-1.238.251-2.179.752-2.819.506-.64 1.255-.96 2.245-.96.981 0 1.717.32 2.211.96.497.64.745 1.58.745 2.819.001 1.257-.249 2.203-.751 2.839zM173.751 29.597l-3.779 10.14h1.74l.988-2.804h3.861l1.009 2.804h1.755l-3.779-10.14h-1.795zm-.567 5.914l.911-2.631c.24-.672.421-1.292.547-1.859.046.185.128.475.248.871.124.397.22.686.289.871l.946 2.75h-2.941v-.002zM142.171 29.639h-1.65v10.1h1.65v-10.1zM122.771 29.597l-3.779 10.14h1.74l.988-2.804h3.861l1.009 2.804h1.755l-3.779-10.14h-1.795zm-.567 5.914l.912-2.631c.239-.672.421-1.292.546-1.859a20.057 20.057 0 00.538 1.742l.947 2.748h-2.943zM83.425 0H80.8v23.353h2.624V0zM70.023 11.331c2.487-.76 3.834-2.695 3.834-5.492 0-3.663-2.73-5.839-7.39-5.839h-7.39v23.353h8.081c4.904 0 7.805-2.384 7.805-6.392 0-2.797-1.831-4.905-4.94-5.63zM61.7 2.211h4.766c2.97 0 4.698 1.451 4.698 3.834 0 2.73-1.728 4.457-4.386 4.457H61.7V2.21H61.7zm5.458 18.931h-5.457v-8.567h5.665c2.97 0 4.903 1.728 4.903 4.388-.001 2.625-1.9 4.18-5.11 4.18zM98.276 23.353V2.212h6.529V0h-15.75v2.212h6.597v21.14h2.624zM165.003 21.142h-10.947V12.68h9.807v-2.106h-9.807V2.212h10.842V0h-13.466v23.354h13.571v-2.212zM124.352 0h-15.748v2.212h6.596v21.14h2.624V2.213h6.528V0zM173.226 23.354l5.353-9.605.206-.898.207.898 5.389 9.605h3.212l-7.149-11.92 6.94-11.4h-3.177l-5.215 9.258-.207.9-.206-.9-5.216-9.257h-3.142l6.942 11.4-7.149 11.92h3.212zM139.689 13.991c3.108-.725 5.076-3.074 5.076-6.84 0-4.49-3.039-7.151-8.186-7.151h-6.733v23.353h2.624v-9.05h5.042l5.076 9.05h3.109l-5.319-8.671-.689-.69zm-2.799-1.762h-4.455V2.212h4.628c3.178 0 5.042 1.83 5.042 4.94 0 3.385-2.106 5.077-5.215 5.077zM8.274 0v6.347h3.986v-2.36h23.909V27.91h-23.91V15.055H8.274v16.842h31.88V0H8.274zM0 8.97V40.87h31.878v-6.605h-3.984v2.617H3.984V12.959h23.91v12.598h3.984V8.971H0z"/></g><defs><clipPath id="clip0"><path fill="#fff" d="M0 0h188v40.869H0z"/></clipPath></defs></svg>
